X: 11794
T: The TAYLOR'S TUNE
T: From "The Jealous Farmer."
Q: "With spirit."
%R: jig
B: W. Hamilton "Universal Tune-Book" Vol. 1 Glasgow 1844 p.179 #4
S: http://imslp.org/wiki/Hamilton's_Universal_Tune-Book_(Various)
Z: 2016 John Chambers <jc:trillian.mit.edu>
M: 6/8
L: 1/8
K: G
% - - - - - - - - - - - - - - - - - - - - - - - - -
D |\
G>AG G>AG | .g2z .d2z | dgd dcB | AdG FED |\
G>AG G>AG | .d2z .A2z | Bgf ed^c | d2z D2 :|
|: d |\
dbd dcB | c2z A2B | cac cBA | B2z G2A |\
Bcd dgd | e2f gec | BAG AGF | G2G G2 :|
% - - - - - - - - - - - - - - - - - - - - - - - - -

%%sep 1 1 500
%%sep 1 1 500

